boxicons/svg/solid/bxs-chess.svg

<svg xmlns="http://www.w3.org/2000/svg" width="24" height="24" viewBox="0 0 24 24"><path d="M21,2H3C2.447,2,2,2.448,2,3v18c0,0.552,0.447,1,1,1h18c0.553,0,1-0.448,1-1V3C22,2.448,21.553,2,21,2z M20,8h-4v4h4v4h-4 v4h-4v-4H8v4H4v-4h4v-4H4V8h4V4h4v4h4V4h4V8z"/><path d="M8 8H12V12H8zM12 12H16V16H12z"/></svg>

<svg xmlns="http://www.w3.org/2000/svg" width="24" height="24" viewBox="0 0 24 24"><path d="M21 2H3a1 1 0 0 0-1 1v18a1 1 0 0 0 1 1h18a1 1 0 0 0 1-1V3a1 1 0 0 0-1-1zm-1 6h-4v4h4v4h-4v4h-4v-4H8v4H4v-4h4v-4H4V8h4V4h4v4h4V4h4v4z"/><path d="M8 8h4v4H8zm4 4h4v4h-4z"/></svg>
